!!!!SEGMENT: pl-sa--172-a-v-2--007_szczurowski-jacek--msza-swiateczna-patrem.krn
!!!cenid: 17xx:267
!!!COM: Szczurowski, Jacek
!!!COM-rismid: pe30017605
!!!CDT: 1716/08/15-~1733
!!!CNT: Polish
!!!OPR: Msza świąteczna
!!!OTL: Patrem
!!!OMV: 007
!!!PDT:
!!!AGN: Sacred; Mass
!!!SMS-siglum: PL-SA
!!!SMS-shelfmark: 172/A V 2
!!!SMS-shelfwork: 001-007 M
!!!NIFC-rismid:
!!!URL-scan: http://bc.bdsandomierz.pl/dlibra/publication/1506/edition/1474/content
!!!ONB-nifc: UWAGA: części Mszy: Kyrie, Christe, Et in terra, Laudamus, Qui tollis, Quoniam, Patrem, Et Incarnatus, Ressurexit, Sanctus, Osanna, Benedictus, Agnus Dei
**kern	**fba	**kern	**kern	**kern	**text	**kern	**text	**kern	**kern
*part7	*	*part6	*part5	*part4	*part4	*part3	*part3	*part2	*part1
*	*	*group3	*group3	*group2	*	*group2	*	*group1	*group1
*staff7	*	*staff6	*staff5	*staff4	*staff4	*staff3	*staff3	*staff2	*staff1
*I"Organo:	*	*I"Violino 2:d:	*I"Violino Primo	*I"Soprano 2:do:	*	*I"Soprano Primo.	*	*I"Corno 2.do Ex D:	*I"Corno Primo Ex D:
*I'Org	*	*I'Vl II	*I'Vl I	*I'S II	*	*I'S I	*	*I'Cor II	*I'Cor I
*clefF4	*	*clefG2	*clefG2	*clefC1	*	*clefC1	*	*clefG2	*clefG2
*	*	*	*	*	*	*	*	*ITrd6c10	*ITrd6c10
*k[f#c#]	*	*k[f#c#]	*k[f#c#]	*k[f#c#]	*	*k[f#c#]	*	*k[f#c#]	*k[f#c#]
*D:	*	*D:	*D:	*D:	*	*D:	*	*D:	*D:
*M4/4	*	*M4/4	*M4/4	*M4/4	*	*M4/4	*	*M4/4	*M4/4
*met(c)	*	*met(c)	*met(c)	*met(c)	*	*met(c)	*	*met(c)	*met(c)
=1	=1	=1	=1	=1	=1	=1	=1	=1	=1
!LO:TX:a:t=P:problem:znaki przykluczowe jeden pod drugim	!	!	!	!LO:TX:a:t=P:problem:znaki przykluczowe w kolejności cc# f#	!	!LO:TX:a:t=P:problem:znaki przykluczowe jeden pod drugim, cis oktawę wyżej	!	!LO:TX:a:t=P:problem:skreślone oznaczenie tempa adagio	!
!	!	!	!	!LO:TX:a:t=P:problem:pojedyncze ósemki i szesnastki mają chorągiewki z lewej strony kreski	!	!LO:TX:a:t=P:problem:pojedyncze ósemki i szesnastki mają chorągiewki z lewej strony kreski	!	!	!
!LO:TX:a:t=allo	!	!LO:TX:a:t=allo	!LO:TX:a:t=allegro	!LO:TX:a:B:t=allo	!	!LO:TX:a:B:t=allo	!	!LO:TX:a:B:t=Allo	!LO:TX:a:B:t=Allo
8D\L	.	8f#/L	8dd\L	8f#/	Pa-	8dd\	Pa-	8d\L	8f#\L
!	!	!	!	!LO:SIC:l:s=-trem:v	!	!	!	!	!
8D\	.	8f#/J	8dd\J	8f#/	-tres	8dd\	-trem	8d\	8f#\
8F#\	6	8a/L	8dd\L	8a\	om-	8dd\	om-	8d\	8f#\
8F#\J	.	16a/L	16dd\L	16a\	-ni-	16dd\	-ni-	8d\J	8f#\J
.	.	16a/JJ	16dd\JJ	16a\	-po-	16dd\	-po-	.	.
8E\L	6	8g/L	8cc#\L	8g/	-ten-	8cc#\	-ten-	8A/L	8e\L
!	!	!	!	!LO:SIC:l:s=.:t=zbędna sylaba:v	!	!	!	!	!
8E\	.	16g/L	16cc#\L	16g/	-te-	16cc#\	-tem	8A/	8e\
.	.	16g/JJ	16cc#\JJ	16g/	-tem	16cc#\	fac-	.	.
8E\	.	16g/LL	16cc#\LL	8g/	Fac-	8cc#\	-to-	8A/	8e\
.	.	16g/	16cc#\	.	.	.	.	.	.
8E\J	.	16g/	16cc#\	8g/	-to-	8cc#\	-rem	8A/J	8e\J
.	.	16g/JJ	16cc#\JJ	.	.	.	.	.	.
=2	=2	=2	=2	=2	=2	=2	=2	=2	=2
8F#\L	6	8a/L	8dd\L	8a\	-rem	8dd\	cae-	8d\L	8f#\L
8F#\	.	16a/L	16dd\L	16a\	ce-	16dd\	-li	8d\	8f#\
.	.	16a/JJ	16dd\JJ	16a\	-li	16dd\	et	.	.
!	!	!	!	!LO:TX:a:t=P:problem:tekst słowny - dwie sylaby pod jedną nutą	!	!	!	!	!
8F#\	.	16a/LL	16dd\LL	8a\	et ter-	8dd\	ter-	8d\	8f#\
.	.	16a/	16dd\	.	.	.	.	.	.
8F#\J	.	16a/	16dd\	8a\	-re	8dd\	-re	8d\J	8f#\J
.	.	16a/JJ	16dd\JJ	.	.	.	.	.	.
8G\L	.	8b/L	8dd\L	16b\	vi-	8dd\	vi-	8d\L	8g\L
.	.	.	.	16b\	-si-	.	.	.	.
8G\	.	16b/L	16dd\L	8b\	-bi-	8dd\	-si-	8d\	8g\
.	.	16b/JJ	16dd\JJ	.	.	.	.	.	.
!	!	!	!	!LO:LB:g=original	!	!LO:LB:g=original	!	!	!
8G\	.	16b/LL	16dd\LL	8b\	-li-	8dd\	-bi-	8d\	8g\
.	.	16b/	16dd\	.	.	.	.	.	.
8G\J	.	16b/	16dd\	8b\	-um	16dd\	-li-	8d\J	8g\J
.	.	16b/JJ	16dd\JJ	.	.	16dd\	-um	.	.
!	!	!	!	!	!	!	!	!	!LO:LB:g=original
=3	=3	=3	=3	=3	=3	=3	=3	=3	=3
!LO:TX:a:t=P:problem:nadmiarowe takty w cor I	!	!LO:TX:a:t=P:problem:nadmiarowe takty w cor I	!LO:TX:a:t=P:problem:nadmiarowe takty w cor I	!LO:TX:a:t=P:problem:nadmiarowe takty w cor I	!	!LO:TX:a:t=P:problem:nadmiarowe takty w cor I	!	!LO:TX:a:t=P:problem:nadmiarowe takty w cor I	!LO:TX:a:t=P:problem:zbędne powtórzenie t. 2
1ryy	.	1ryy	1ryy	1ryy	.	1ryy	.	1ryy	8f#\L
.	.	.	.	.	.	.	.	.	8f#\
.	.	.	.	.	.	.	.	.	8f#\
.	.	.	.	.	.	.	.	.	8f#\J
.	.	.	.	.	.	.	.	.	8g\L
.	.	.	.	.	.	.	.	.	8g\
.	.	.	.	.	.	.	.	.	8g\
.	.	.	.	.	.	.	.	.	8g\J
=4	=4	=4	=4	=4	=4	=4	=4	=4	=4
8G#X\L	5	8b/L	8dd\L	8b\	om-	8dd\	om-	8d\L	8g#X\L
8G#\	.	16b/L	16dd\L	16b\	-ni-	16dd\	-ni-	8d\	8g#\
.	.	16b/JJ	16dd\JJ	16b\	-um	16dd\	-um	.	.
!	!	!	!	!LO:TX:a:t=adagio	!	!	!	!	!
8G#\	-7	16dd\LL	16ffn\LL	8dd\	et	8ffn\	et	8d\	8fX\
.	.	16dd\	16ff\	.	.	.	.	.	.
8G#\J	.	16dd\	16ff\	8dd\	in	8ff\	in	8d\J	8f\J
.	.	16dd\JJ	16ff\JJ	.	.	.	.	.	.
!	!	!	!LO:TX:a:t=adagio	!	!	!	!	!	!
!LO:TX:a:t=adagio	!	!LO:TX:a:B:t=adagio	!LO:N:vis=32	!	!	!LO:TX:a:B:t=adagio	!	!LO:TX:a:B:t=adagio	!LO:TX:a:B:t=adagio
16A\LL	.	8cc#\L	8ee\L	8cc#\	vi-	8ee\	vi-	8A/	8e\L
16A\	.	.	.	.	.	.	.	.	.
!	!	!	!LO:N:vis=32	!	!	!	!	!	!LO:SIC:s=8een:v
16A\	4	8dd\	8ff#X\	8dd\	-ſi-	8ff#X\	-si-	8d/L	8f\
16A\JJ	.	.	.	.	.	.	.	.	.
!	!	!	!LO:N:vis=32	!	!	!	!	!	!LO:SIC:s=8ff:v
16A\LL	.	8ee\	8gg\	8ee\L	-bi-	8gg\L	-bi-	8e/	8g#\
16A\	7	.	.	.	.	.	.	.	.
!	!	!	!LO:N:vis=32	!	!	!	!	!	!LO:SIC:s=8een:v
16A\	.	8dd\J	8ff#\J	8dd\J	.	8ff#\J	.	8d/J	8f\J
16A\JJ	4	.	.	.	.	.	.	.	.
=5	=5	=5	=5	=5	=5	=5	=5	=5	=5
16A\LL	.	16dd\LL	16ff#\LL	8dd\	.	8ff#\	.	16d/Lk	16f#\LL
16A\	.	16cc#\J	16ee\J	.	.	.	.	16A/	16e\JJ
16A\	3	8cc#\J	8ee\J	16cc#\	-li-	16ee\	-li-	8A/J	4e\
16A\JJ	.	.	.	16cc#\	-um	16ee\	-um	.	.
16A\LL	.	8r	8r	8r	.	8r	.	4r	.
16A\	.	.	.	.	.	.	.	.	.
16A\	.	8f#/	8dd\	8f#/	in	8dd\	in	.	8r
16A\JJ	.	.	.	.	.	.	.	.	.
!	!	!	!LO:LB:g=original	!	!	!	!	!	!
16AA/LL	.	8e/L	8cc#\L	8e/	vi-	8cc#\	vi-	2ra	2ra
16AA/	.	.	.	.	.	.	.	.	.
16AA/	.	8f#/	8dd\	8f#/	-ſi-	8dd\	-si-	.	.
16AA/JJ	4	.	.	.	.	.	.	.	.
16AA/LL	.	8g/	8ee\	8g/L	-bi-	8ee\L	-bi-	.	.
16AA/	7	.	.	.	.	.	.	.	.
16AA/	.	8f#/J	8dd\J	8f#/J	.	8dd\J	.	.	.
16AA/JJ	4	.	.	.	.	.	.	.	.
!	!	!LO:LB:g=original	!	!	!	!	!	!	!
=6	=6	=6	=6	=6	=6	=6	=6	=6	=6
16AA/LL	4	16f#/LL	16dd\LL	8f#/	.	8dd\	.	4r	4r
16AA/	3	16e/J	16cc#\J	.	.	.	.	.	.
!	!	!	!	!	!	!LO:LB:g=original	!	!	!
16AA/	.	8e/J	8cc#\J	16e/	-li-	16cc#\	-li-	.	.
16AA/JJ	.	.	.	16e/	-um	16cc#\	-um	.	.
16A\LL	.	8r	8r	8r	.	8r	.	8r	8r
16A\	.	.	.	.	.	.	.	.	.
!	!	!	!	!LO:TX:a:B:t=allo	!	!	!	!LO:TX:a:B:t=allo	!
16Gn\	.	8e/	8cc#\	16e/	et	16cc#\	et	8e\	8cc#\
16G\JJ	.	.	.	16e/	in	16cc#\	in	.	.
!LO:LB:g=original	!	!LO:TX:a:B:t=allo	!LO:TX:a:t=allo	!LO:LB:g=original	!	!	!	!	!
8F#\L	6	16a/LL	16dd\LL	8a\	u-	8dd\	u-	4f#\	4dd\
.	.	16a/	16dd\	.	.	.	.	.	.
8F#\	.	16a/	16dd\	8a\	-num	8dd\	-num	.	.
.	.	16a/JJ	16dd\JJ	.	.	.	.	.	.
!	!	!	!	!	!	!LO:SIC:s=8ccn:t=zgodnie z partią Violino Primo:v	!	!	!
8F#\	5	16a/LL	16ccn\LL	8a\	do-	8cc#\	Do-	4a\	4ccX\
.	.	16a/	16cc\	.	.	.	.	.	.
!	!	!	!	!	!	!LO:SIC:s=16ccn:t=zgodnie z partią Violino Primo:v	!	!	!
8F#\J	.	16a/	16cc\	16a\	-mi-	16cc#\	-mi-	.	.
!	!	!	!	!	!	!LO:SIC:s=16ccn:t=zgodnie z partią Violino Primo:v	!	!	!
.	.	16a/JJ	16cc\JJ	16a\	-num	16cc#\	-num	.	.
=7	=7	=7	=7	=7	=7	=7	=7	=7	=7
8G\L	.	16g/LL	16b\LL	8b\	Je-	8b\	Je-	4g\	4b\
.	.	16b/	16dd\	.	.	.	.	.	.
8G\	.	16b/	16dd\	8b\	-ſu(m)	8dd\	-sum	.	.
.	.	16b/JJ	16dd\JJ	.	.	.	.	.	.
8G#X\	.	16b/LL	16ee\LL	8b\	Chri-	8ee\	Chri-	4e\	4b\
.	.	16b/	16ee\	.	.	.	.	.	.
8G#\J	.	16b/	16ee\	8b\	-ſtu(m)	8ee\	-stum	.	.
.	.	16b/JJ	16ee\JJ	.	.	.	.	.	.
8A\L	.	16cc#\LL	16ee\LL	8cc#\	Fi-	8ee\	Fi-	4e\	4a\
.	.	16cc#\	16ee\	.	.	.	.	.	.
8A\	.	16cc#\	16ee\	16cc#\	-li-	16ee\	-li-	.	.
.	.	16cc#\JJ	16ee\JJ	16cc#\	-um	16ee\	-um	.	.
8A#X\	6	16cc#\LL	16ff#\LL	8cc#\	De-	8ff#\	De-	4e\	4cc#\
.	.	16cc#\	16ff#\	.	.	.	.	.	.
8A#\J	.	16cc#\	16ff#\	8cc#\	-i	8ff#\	-i	.	.
.	.	16cc#\JJ	16ff#\JJ	.	.	.	.	.	.
=8	=8	=8	=8	=8	=8	=8	=8	=8	=8
8B\L	.	16ee\LL	16gg\LL	16ee\LL	u-	16gg\LL	u-	4e\	4g\
.	.	16dd\	16ff#\	16dd\JJ	.	16ff#\JJ	.	.	.
8B\	.	16cc#\	16ee\	16cc#\LL	-ni-	16ee\LL	-ni-	.	.
.	.	16b\JJ	16dd\JJ	16b\JJ	.	16dd\JJ	.	.	.
8E\	.	16b/LL	16dd\LL	4b\	-ge-	4dd\	-ge-	4d\	4b\
.	.	16b/	16dd\	.	.	.	.	.	.
8E#X\J	.	16b/	16dd\	.	.	.	.	.	.
.	.	16b/JJ	16dd\JJ	.	.	.	.	.	.
!	!	!	!	!	!	!LO:LB:g=original	!	!	!
8F#\L	.	16b/LL	16dd\LL	8b\	.	8dd\	.	8d/L	16b\LL
!	!	!	!	!	!	!	!	!	!LO:TX:a:t=P:problem:niejednoznaczny zapis wysokości - gg# gg##
.	.	16a#X/J	16cc#\J	.	.	.	.	.	16a#X\J
16F#\L	.	8a#/J	8cc#\J	16a#X\	-ni-	16cc#\	-ni-	16F#/L	8a#\J
!	!	!	!	!LO:N:vis=32	!	!	!	!	!
16F#\JJ	.	.	.	16a#\	-ti	16cc#\	-tum	16F#/JJ	.
16FF#/LL	.	8r	8r	8r	.	8r	.	4r	4r
16FF#/	.	.	.	.	.	.	.	.	.
!	!	!	!	!LO:TX:a:B:t=adagio	!	!LO:TX:a:B:t=adagio	!	!	!
16FF#/	.	8dd\	8ff#\	8dd\	et	8ff#\	et	.	.
16FF#/JJ	.	.	.	.	.	.	.	.	.
=9	=9	=9	=9	=9	=9	=9	=9	=9	=9
!	!	!	!	!	!	!	!	!LO:TX:a:t=3	!
!LO:TX:a:t=adagio	!	!LO:TX:a:B:t=adagio	!LO:TX:a:t=adagio	!	!	!	!	!LO:TX:a:B:t=adagio	!LO:TX:a:t=3
16F#\LL	.	8.dd\L	8.ff#\L	8.dd\L	ex	8.ff#\L	ex	0r	0r
16F#\	.	.	.	.	.	.	.	.	.
16F#\	.	.	.	.	.	.	.	.	.
16F#\JJ	.	16b\K	16dd\K	16b\Jk	.	16dd\Jk	.	.	.
!	!	!	!	!LO:LB:g=original	!	!	!	!	!
16F#\LL	.	8.cc#\	8.ee\	8.cc#\	pa-	8.ee\	Pa-	.	.
16F#\	.	.	.	.	.	.	.	.	.
16F#\	.	.	.	.	.	.	.	.	.
16F#\JJ	.	16a#X\Jk	16cc#\Jk	16a#X\	-tre	16cc#\	-tre	.	.
!	!	!	!LO:TX:a:t=P:problem:mixed beam	!	!	!	!	!	!
4BB/	.	8b/L	8dd\L	8b\L	Na-	8dd\L	na-	.	.
.	.	8d/	8f#/	8dd\	.	8ff#\	.	.	.
4r	.	8c#/	8e/	8cc#\	.	8ee\	.	.	.
.	.	8B/J	8d/J	8b\J	.	8dd\J	.	.	.
=10	=10	=10	=10	=10	=10	=10	=10	=10	=10
8F#\L	.	16B/LL	16d/LL	16b\LL	.	16dd\LL	.	.	.
.	.	16A#X/J	16c#/J	16a#X\JJ	.	16cc#\JJ	.	.	.
16F#\L	.	8A#/J	8c#/J	8a#\	-tu(m)	8cc#\	-tum	.	.
16F#\JJ	.	.	.	.	.	.	.	.	.
16F#\LL	.	8r	8r	8r	.	8r	.	.	.
16F#\	.	.	.	.	.	.	.	.	.
16F#\	.	8dd\	8ff#\	8dd\	an-	8ff#\	an-	.	.
16F#\JJ	.	.	.	.	.	.	.	.	.
!	!	!LO:LB:g=original	!LO:LB:g=original	!	!	!	!	!	!
16FF#/LL	.	8.dd\L	8.ff#\L	8.dd\	.	8.ff#\	-te	.	.
16FF#/	.	.	.	.	.	.	.	.	.
16FF#/	.	.	.	.	.	.	.	.	.
16FF#/JJ	.	16b\K	16dd\K	16b\	-te	16dd\	.	.	.
16FF#/LL	.	8.cc#\	8.ee\	8cc#\	om-	8ee\	om-	.	.
16FF#/	.	.	.	.	.	.	.	.	.
16FF#/	.	.	.	16a#\	-ni-	16cc#\	-ni-	.	.
16FF#/JJ	.	16a#X\Jk	16cc#\Jk	16a#\	-a	16cc#\	-a	.	.
=11	=11	=11	=11	=11	=11	=11	=11	=11	=11
!	!	!	!LO:TX:a:t=P:problem:mixed beam	!	!	!	!	!	!
4BB/	.	8b/L	8dd\L	8b\L	ſae-	8dd\L	sae-	1r	1r
.	.	8d/	8f#/	8dd\	.	8ff#\	.	.	.
4r	.	8c#/	8e/	8cc#\	.	8ee\	.	.	.
.	.	8B/J	8d/J	8b\J	.	8dd\J	.	.	.
!LO:TX:a:B:t=allo	!	!	!	!	!	!	!	!	!
8F#\L	.	16B/LL	16d/LL	16b\	.	8dd\	.	.	.
.	.	16A#X/J	16c#/J	16a#X\	-cu-	.	.	.	.
16F#\L	.	8A#/J	8c#/J	8a#\	-la	16cc#\	-cu-	.	.
16F#\JJ	.	.	.	.	.	16cc#\	-la	.	.
!	!	!	!	!	!	!LO:PB:g=original	!	!	!
8F#\L	.	8r	8r	8r	.	8r	.	.	.
!	!	!LO:TX:a:t=allo	!LO:TX:a:t=allo	!	!	!	!	!	!
8A#X\J	.	8cc#\	8ee\	16cc#\	De-	16ee\	De-	.	.
.	.	.	.	16cc#\	-um	16ee\	-um	.	.
!LO:LB:g=original	!	!	!	!	!	!	!	!	!
=12	=12	=12	=12	=12	=12	=12	=12	=12	=12
*	*	*	*	*	*	*	*	*2\right	*2\right
!	!	!	!	!LO:TX:a:B:t=allo	!	!	!	!LO:TX:a:B:t=allo	!
8B\L	.	8dd#X\L	8ff#\L	8dd#X\	de	8ff#\	de	2f#\	2a\
8B\	.	16dd#\L	16ff#\L	16dd#\	de-	16ff#\	De-	.	.
.	.	16dd#\JJ	16ff#\JJ	16dd#\	-o	16ff#\	-o	.	.
!	!	!	!	!LO:LB:g=original	!	!	!	!	!
8An\	.	16dd#\LL	16ff#\LL	8dd#\	lu-	8ff#\	lu-	.	.
.	.	16dd#\	16ff#\	.	.	.	.	.	.
8A\J	.	16dd#\	16ff#\	16dd#\	-men-	16ff#\	-men	.	.
.	.	16dd#\JJ	16ff#\JJ	16dd#\	-de	16ff#\	de	.	.
!	!	!	!	!	!	!	!	!	!LO:SIC:s=4ff#:v
8G#X\L	.	16g#X/LL	16ee\LL	8ee\	lu-	8ee\	lu-	4e\	4g\
.	.	16g#/	16ee\	.	.	.	.	.	.
8E\	.	16b/	16b\	16b\	-mi-	16b\	-mi-	.	.
.	.	16b/JJ	16b\JJ	16b\	-ne	16b\	-ne	.	.
8E\	.	16g#/LL	16g#X/LL	8r	.	8r	.	4r	4r
.	.	16g#/	16g#/	.	.	.	.	.	.
8E\J	.	16e/	16e/	16b\	De-	16b\	De-	.	.
.	.	16e/JJ	16e/JJ	16b\	-um	16b\	-um	.	.
!	!	!	!	!	!	!	!	!LO:PB:g=original	!
=13	=13	=13	=13	=13	=13	=13	=13	=13	=13
8A\L	.	16cc#\LL	16ee\LL	8cc#\	ve-	8ee\	ve-	2e\	2g\
.	.	16cc#\	16ee\	.	.	.	.	.	.
8A\	.	16cc#\	16ee\	16cc#\	-ru(m)	16ee\	-rum	.	.
.	.	16cc#\JJ	16ee\JJ	16cc#\	de	16ee\	de	.	.
8Gn\	.	16cc#\LL	16ee\LL	8cc#\	De-	8ee\	De-	.	.
.	.	16cc#\	16ee\	.	.	.	.	.	.
8G\J	.	16cc#\	16ee\	8cc#\	-o	8ee\	-o	.	.
.	.	16cc#\JJ	16ee\JJ	.	.	.	.	.	.
8F#\L	.	16f#/LL	16dd/LL	8dd\	ve-	8dd\	ve-	4d\	4f#\
.	.	16f#/	16dd/	.	.	.	.	.	.
8D\	.	16a/	16a/	8a\	-ro	8a\	-ro	.	.
.	.	16a/JJ	16a/JJ	.	.	.	.	.	.
8D\	.	16f#/LL	16f#/LL	8r	.	8r	.	4r	4r
.	.	16f#/	16f#/	.	.	.	.	.	.
8F#\J	.	16d/	16d/	8a\	ge-	8a\	ge-	.	.
!	!	!	!	!	!	!	!	!LO:TX:a:t=P:problem:dopisana jedna czterotaktowa pauza z adnotacją "4"	!
.	.	16d/JJ	16d/JJ	.	.	.	.	.	.
!	!	!	!	!	!	!LO:LB:g=original	!	!	!
=14	=14	=14	=14	=14	=14	=14	=14	=14	=14
8G\L	.	16b/LL	16dd\LL	8b\	-ni-	8dd\	-ni-	8d\L	8g\L
.	.	16b/	16dd\	.	.	.	.	.	.
8G\	.	16b/	16dd\	8b\	-tu(m)	8dd\	-tum	8d\	8g\
.	.	16b/JJ	16dd\JJ	.	.	.	.	.	.
8G\	.	16b/LL	16dd\LL	8b\	non	8dd\	non	8d\	8g\
.	.	16b/	16dd\	.	.	.	.	.	.
8G\J	.	16b/	16dd\	8b\	Fac-	8dd\	fac-	8d\J	8g\J
.	.	16b/JJ	16dd\JJ	.	.	.	.	.	.
8F#\L	6	16a/LL	16dd\LL	8a\	-tu(m)	8dd\	-tum	8d\L	8f#\L
.	.	16a/	16dd\	.	.	.	.	.	.
8F#\	.	16a/	16dd\	4a\	con-	4dd\	Con-	8d\	8f#\
.	.	16a/JJ	16dd\JJ	.	.	.	.	.	.
8F#\	.	16a/LL	16dd\LL	.	.	.	.	8d\	8f#\
.	.	16a/	16dd\	.	.	.	.	.	.
8F#\J	.	16a/	16dd\	8a\	-ſub-	8dd\	-sub-	8d\J	8f#\J
.	.	16a/JJ	16dd\JJ	.	.	.	.	.	.
!	!	!LO:LB:g=original	!	!LO:LB:g=original	!	!	!	!	!
=15	=15	=15	=15	=15	=15	=15	=15	=15	=15
8E\L	7	16g/LL	16dd\LL	8g/	-ſta(n)-	8dd\	-stan-	8d/L	8g\L
.	.	16g/	16dd\	.	.	.	.	.	.
8E\	.	16g/	16dd\	8g/	-ti-	8dd\	-ci-	8d/	8g\
.	.	16g/JJ	16dd\JJ	.	.	.	.	.	.
!	!	!	!LO:LB:g=original	!	!	!	!	!	!
8AA\	.	16g/LL	16cc#\LL	8g/	-a-	8cc#\	-a-	8A/	8e\
.	.	16g/	16cc#\	.	.	.	.	.	.
8AA\J	7	16g/	16cc#\	8g/	-lem	8cc#\	-lem	8A/J	8e\J
.	.	16g/JJ	16cc#\JJ	.	.	.	.	.	.
!	!	!	!	!	!	!	!	!	!LO:LB:g=original
8D\L	.	16g/LL	16cc#\LL	8g/	Pa-	16cc#\LL	Pa-	8F#/L	8d\L
.	.	16f#/	16dd\	.	.	16dd\JJ	.	.	.
8D\	.	16f#/	16dd\	8f#/	-tri	8dd\	-tri	8d/	8f#\
.	.	16f#/JJ	16dd\JJ	.	.	.	.	.	.
8F#\	6	16a/LL	16dd\LL	8a\	per-	8dd\	per-	8d/	8f#\
.	.	16a/	16dd\	.	.	.	.	.	.
8F#\J	.	16a/	16dd\	8a\	-que(m)	8dd\	-quem	8d/J	8f#\J
.	.	16a/JJ	16dd\JJ	.	.	.	.	.	.
=16	=16	=16	=16	=16	=16	=16	=16	=16	=16
8G\L	.	16b\LL	16dd\LL	4b\	om-	4dd\	o-	8d\L	8g\L
.	.	16b\	16dd\	.	.	.	.	.	.
8G\	.	16b\	16dd\	.	.	.	.	8d\	8g\
.	.	16b\JJ	16dd\JJ	.	.	.	.	.	.
8G#X\	.	16dd\LL	16ffn\LL	8dd\	-ni-	8ffn\	-mni-	8d\	8fX\
.	.	16dd\	16ff\	.	.	.	.	.	.
8G#\J	.	16dd\	16ff\	8dd\	-a	8ff\	-a	8d\J	8f\J
!	!	!	!	!	!	!LO:TX:a:B:t=adagio	!	!	!
.	.	16dd\JJ	16ff\JJ	.	.	.	.	.	.
!LO:TX:a:B:t=adagio	!	!LO:TX:a:t=adagio	!LO:TX:a:t=adagio	!LO:TX:a:B:t=adagio	!	!	!	!LO:TX:a:B:t=adagio	!LO:TX:a:B:t=adagio
16A\LL	.	8cc#\L	8ee\L	8cc#\L	Fa-	8ee\L	fa-	8A/L	8e\L
16A\	.	.	.	.	.	.	.	.	.
16A\	.	8dd\	8ff#X\	8dd\	.	8ff#X\	.	8d/	8f#\
16A\JJ	4	.	.	.	.	.	.	.	.
16A\LL	7	8ee\	8gg\	8ee\	.	8gg\	.	8e/	8g\
16A\	.	.	.	.	.	.	.	.	.
16A\	.	8dd\J	8ff#\J	8dd\J	.	8ff#\J	.	8d/J	8f#\J
16A\JJ	4	.	.	.	.	.	.	.	.
=17	=17	=17	=17	=17	=17	=17	=17	=17	=17
!LO:TX:a:t=P:problem:mixed beam	!	!	!	!	!	!	!	!	!
16A\LL	.	16dd\LL	16ff#\LL	16dd\LL	-cta	16ff#\	.	16d/LL	16f#\LL
16AA/	.	16cc#\J	16ee\J	16cc#\JJ	.	16ee\	-cta	16A/J	16e\J
!	!	!	!	!	!	!LO:LB:g=original	!	!	!
16AA/	.	8cc#\J	8ee\J	8cc#\	ſunt	8ee\	sunt	8A/J	8e\J
16AA/JJ	.	.	.	.	.	.	.	.	.
16AA/LL	.	8r	8r	8r	.	8r	.	4r	4r
16AA/	.	.	.	.	.	.	.	.	.
16AA/	.	8f#/	8dd\	8f#/	Fa-	8dd\	fa-	.	.
16AA/JJ	.	.	.	.	.	.	.	.	.
16AA/LL	.	8e/L	8cc#\L	8e/L	.	8cc#\L	.	2ra	2ra
16AA/	.	.	.	.	.	.	.	.	.
16AA/	.	8f#/	8dd\	8f#/	.	8dd\	.	.	.
16AA/JJ	.	.	.	.	.	.	.	.	.
!LO:LB:g=original	!	!	!	!	!	!	!	!	!
16AA/LL	.	8g/	8ee\	8g/	.	8ee\	.	.	.
16AA/	.	.	.	.	.	.	.	.	.
16AA/	.	8f#/J	8dd\J	8f#/J	.	8dd\J	.	.	.
16AA/JJ	.	.	.	.	.	.	.	.	.
=18	=18	=18	=18	=18	=18	=18	=18	=18	=18
8AA/L	.	16f#/LL	16dd\LL	16f#/LL	-cta	16dd\	.	4r	4r
.	.	16e/J	16cc#\J	16e/JJ	.	16cc#\	-cta	.	.
16AA/L	.	8e/J	8cc#\J	8e/	ſunt	8cc#\	sunt	.	.
16AA/JJ	.	.	.	.	.	.	.	.	.
16AA/LL	.	8r	8r	8r	.	8r	.	8r	8r
16AA/	.	.	.	.	.	.	.	.	.
!	!	!	!	!LO:TX:a:B:t=allo	!	!LO:TX:a:B:t=allo	!	!	!LO:TX:a:B:t=allo
16AA/	.	8e/	8cc#\	8e/	qui	8cc#\	qui	8A/	8e\
16AA/JJ	.	.	.	.	.	.	.	.	.
!	!	!	!LO:TX:a:t=allo	!	!	!	!	!LO:TX:a:B:t=allo	!
8A\L	.	16a\LL	16cc#\LL	8a\	pro-	8cc#\	pro-	8A/L	8e\L
.	.	16a\	16cc#\	.	.	.	.	.	.
!	!	!	!	!LO:LB:g=original	!	!	!	!	!
8A\	.	16cc#\	16ee\	8cc#\	-pter	8ee\	-pter	8A/	8e\
.	.	16cc#\JJ	16ee\JJ	.	.	.	.	.	.
8Gn\	2	16cc#\LL	16ee\LL	8cc#\	nos	8ee\	nos	8A/	8e\
.	.	16cc#\	16ee\	.	.	.	.	.	.
8G\J	.	16cc#\	16ee\	8cc#\	et	8ee\	et	8A/J	8e\J
.	.	16cc#\JJ	16ee\JJ	.	.	.	.	.	.
=19	=19	=19	=19	=19	=19	=19	=19	=19	=19
8F#\L	6	16a/LL	16dd\LL	8a\	pro-	8dd\	prop-	8d\L	8f#\L
.	.	16a/	16dd\	.	.	.	.	.	.
8F#\	.	16a/	16dd\	8a\	-pter	8dd\	-ter	8d\	8f#\
.	.	16a/JJ	16dd\JJ	.	.	.	.	.	.
8D\	.	16f#/LL	16a/LL	8f#/	noſ-	8a\	nos-	8f#\	8a\
.	.	16f#/	16a/	.	.	.	.	.	.
8D\J	.	16f#/	16a/	8f#/	-tra(m)	8a\	-tram	8f#\J	8a\J
.	.	16f#/JJ	16a/JJ	.	.	.	.	.	.
!LO:TX:a:t=allo	!	!	!	!	!	!	!	!	!
8G\L	.	16g/LL	16b/LL	4g/	ſa-	4b\	sa-	8g\L	8b\L
.	.	16g/	16b/	.	.	.	.	.	.
8G\	.	16g/	16b/	.	.	.	.	8g\	8b\
.	.	16g/JJ	16b/JJ	.	.	.	.	.	.
8E\	.	16g/LL	16cc#\LL	4g/	-lu-	4cc#\	-lu-	8e\	8cc#\
.	.	16g/	16cc#\	.	.	.	.	.	.
8E\J	.	16g/	16cc#\	.	.	.	.	8e\J	8cc#\J
.	.	16g/JJ	16cc#\JJ	.	.	.	.	.	.
!	!	!LO:LB:g=original	!LO:LB:g=original	!	!	!	!	!	!
=20	=20	=20	=20	=20	=20	=20	=20	=20	=20
8D\L	.	16f#/LL	16dd\LL	4f#/	-tem	4dd\	-tem	8f#\L	8dd\L
.	.	16f#/	16dd\	.	.	.	.	.	.
8D\	.	16f#/	16dd\	.	.	.	.	8f#\	8dd\
.	.	16f#/JJ	16dd\JJ	.	.	.	.	.	.
8F#\	.	16f#/LL	16a/LL	4f#/	de-	4a\	de-	8f#\	8a\
.	.	16f#/	16a/	.	.	.	.	.	.
8F#\J	.	16f#/	16a/	.	.	.	.	8f#\J	8a\J
!	!	!	!	!	!	!	!	!LO:TX:a:t=P:problem:skreślona kreska taktowa	!
.	.	16f#/JJ	16a/JJ	.	.	.	.	.	.
8G\L	.	16g/LL	16b/LL	4g/	-ſcen-	4b\	-scen-	8g\L	8b\L
.	.	16g/	16b/	.	.	.	.	.	.
8G\	.	16g/	16b/	.	.	.	.	8g\	8b\
.	.	16g/JJ	16b/JJ	.	.	.	.	.	.
8G\	.	16ee\LL	16gg\LL	8.cc#\	-dir	8.gg\	-dit	8e\	8g\
.	.	16ee\	16gg\	.	.	.	.	.	.
8G\J	.	16ee\	16gg\	.	.	.	.	8e\J	8g\J
.	.	16ee\JJ	16gg\JJ	16cc#\	de-	16gg\	de-	.	.
!	!	!	!	!	!	!LO:LB:g=original	!	!	!
=21	=21	=21	=21	=21	=21	=21	=21	=21	=21
*	*	*	*	*2\right	*	*2\right	*	*	*
8A\L	4	16dd\LL	16ff#\LL	2dd\	-ce-	2ff#\	-cae-	8d\L	8f#\L
.	.	16dd\	16ff#\	.	.	.	.	.	.
8A\	.	16dd\	16ff#\	.	.	.	.	8d\	8f#\
.	.	16dd\JJ	16ff#\JJ	.	.	.	.	.	.
8A\	.	16dd\LL	16ff#\LL	.	.	.	.	8d\	8f#\
.	.	16dd\	16ff#\	.	.	.	.	.	.
8A\J	.	16dd\	16ff#\	.	.	.	.	8d\J	8f#\J
.	.	16dd\JJ	16ff#\JJ	.	.	.	.	.	.
8AA/L	3	16cc#\LL	16ee\LL	2cc#\	.	2ee\	.	8A/L	8e\L
.	.	16cc#\	16ee\	.	.	.	.	.	.
8AA/	.	16cc#\	16ee\	.	.	.	.	8A/	8e\
.	.	16cc#\JJ	16ee\JJ	.	.	.	.	.	.
8AA/	.	16cc#\LL	16ee\LL	.	.	.	.	8A/	8e\
.	.	16cc#\	16ee\	.	.	.	.	.	.
8AA/J	.	16cc#\	16ee\	.	.	.	.	8A/J	8e\J
.	.	16cc#\JJ	16ee\JJ	.	.	.	.	.	.
!	!	!	!	!	!	!	!	!LO:LB:g=original	!
=22	=22	=22	=22	=22	=22	=22	=22	=22	=22
*	*	*2\right	*2\right	*	*	*	*	*	*
2D/	.	2dd\	2dd\	2dd\	-lis	2dd\	-lis	2F#/	2d\
!	!	!LO:TX:a:t=P:problem:kreska taktowa z podwójną repetycją	!	!	!	!	!	!	!LO:TX:a:t=P:problem:kreska taktowa bez repetycji
!LO:TX:a:t=P:problem:kreska taktowa z podwójną repetycją	!	!	!LO:TX:a:t=P:problem:kreska taktowa bez repetycji	!LO:TX:a:t=P:problem:kreska taktowa z podwójną repetycją	!	!LO:TX:a:t=P:problem:kreska taktowa z podwójną repetycją	!	!LO:TX:a:t=P:problem:kreska taktowa bez repetycji	!
2r	.	2ra	2ra	2r	.	2r	.	2rf	2ra
==	==	==	==	==	==	==	==	==	==
*-	*-	*-	*-	*-	*-	*-	*-	*-	*-
!!!system-decoration: [g1][g2][g3]s7
!!!RDF**kern: > = above
!!!RDF**kern: < = below
!!!ENC: Marta Lawrence
!!!END: 2020-09-22
!!!ENC: Andrzej Kubiczek
!!!END: 2020-04-16
